X:85
T: Die Stiefmutter
N: A0096
O: Europa, Mitteleuropa, Deutschland
N: Aus Erk, Liederhalle, No. 2.
R: Romanze, Ballade, Lied
M: 3/4
L: 1/8
K: F
C2 | F2F2GB | A2F2
A2 | G3FEG | F2z2
C2 | F2F2GB | A2F2
A2 | G3FE2 | F4

